X: 1
T:St. Ninian's Parish Centre Ceilidh
M:6/8
L:1/8
Q:80
C:Bob Worrall
S:Jig
K:HP
[| e|
{gefe}f3{g}fed|
{g}Bd{G}d{g}dB{d}G|
{g}Ad{G}d{gde}dcd|  !
{g}fdf{gef}e3|
{gefe}f3{g}fed|
{g}Bd{G}d{g}dB{d}G|  !
{g}Ad{G}d{gde}dcd|
{g}fce{Gdc}d2:| [|
B|  !
{g}Aa{g}a{g}a2g|
{a}fa{g}a{g}afd|
{g}Ad{G}d{gde}dcd|  !
{g}fdf{gef}e3|
{g}fa{g}a{g}a2g|
{a}fa{g}a{g}afd|  !
{g}Ad{G}d{gde}dcd|
{g}fce{Gdc}d2:| [|
B|  !
{gAGAG}AfA{g}edf|
{gAGAG}AfA{g}edB|
{g}Ad{G}d{gde}dcd|  !
{g}fdf{gef}e2f|
{gAGAG}AfA{g}edf|
{gAGAG}AfA{g}edB|  !
{g}Ad{G}d{gde}dcd|
{g}fce{Gdc}d2:| |:
B|  !
{gAGAG}AaAg{a}Af|
{g}AeA{g}dG{d}B|
{g}Ad{G}d{gde}dcd|  !
{g}fdf{gef}e2f|1
{gAGAG}AaAg{a}Af|
{g}AeA{g}dG{d}B|  !
{g}Ad{G}d{gde}dcd|
{g}fce{Gdc}d2:| [|
B|  !
{gAGAG}AaAg{a}Af|
{g}AeA{g}dG{d}B|
{g}Ad{G}d{gde}dcd|  !
{g}fdf{gef}e2f|
{gAGAG}AfA{g}edf|
{gAGAG}AfA{g}edB|  !
{gAGAG}AaAg{a}Af|
{g}Aec{Gdc}d2|]
